wp-content/uploads/2025/04/08.Others.svg

<svg width="72" height="72" viewBox="0 0 72 72" fill="none" xmlns="http://www.w3.org/2000/svg">
<g clip-path="url(#clip0_5308_5847)">
<rect width="72" height="72" rx="36" fill="#FC4C02"/>
<mask id="mask0_5308_5847" style="mask-type:luminance" maskUnits="userSpaceOnUse" x="0" y="0" width="72" height="72">
<path d="M72 0L0 0L0 72H72V0Z" fill="white"/>
</mask>
<g mask="url(#mask0_5308_5847)">
<path d="M36.0038 61.5788C21.9006 61.5788 10.4287 50.1069 10.4287 36.0038C10.4287 21.9006 21.9006 10.4287 36.0038 10.4287C50.0909 10.4448 61.5628 21.9166 61.5788 36.0038C61.5788 50.1069 50.1069 61.5788 36.0038 61.5788ZM15.6592 31.5273C15.3303 32.9954 15.1619 34.4875 15.1619 36.0038C15.1779 46.5611 22.9595 55.3375 33.3644 56.6692C33.3885 55.6664 33.1719 54.6796 32.7226 53.7731C32.0809 52.8505 30.9658 52.2649 29.8747 51.6953C28.2542 50.845 26.4091 49.8903 26.3048 47.6601C26.4091 45.7749 26.361 43.9217 26.1524 42.1087C26.008 41.8761 25.1496 41.4348 24.4517 41.0819C21.9006 39.7822 17.4081 37.5039 15.6592 31.5273ZM35.4663 35.8995C37.0707 35.8995 38.2179 36.437 39.5496 37.8248C40.3679 38.6752 40.7931 39.6459 41.1701 40.5043C41.7718 41.8761 42.1408 42.5981 43.3762 42.7425C44.5635 42.8869 47.4596 43.3923 48.7271 45.085C49.2165 45.7348 49.3929 46.4728 49.2566 47.267C48.9999 48.7752 47.8286 49.8983 46.4648 51.206C45.2053 52.4173 43.7934 53.7651 42.8949 55.6583C50.1872 53.1073 55.4097 46.8338 56.597 39.2046C56.4686 39.3089 56.3402 39.4293 56.2279 39.5576C55.7707 40.0711 55.2412 40.3358 54.6716 40.3358C53.2918 40.3358 51.8638 38.8276 50.0347 35.4502C48.0211 31.7439 49.056 29.5217 49.9625 27.5563C50.2192 27.0027 50.4599 26.4813 50.6444 25.9278C50.869 24.0907 50.6123 22.2215 49.8983 20.5207C47.3312 18.2103 44.2266 16.5658 40.8733 15.7555C40.2074 16.8305 39.2046 17.6407 37.9933 18.0579C34.8004 19.1008 34.7683 21.8444 34.7362 24.4998C34.7122 26.8022 34.6801 29.1768 32.2253 29.6822C32.0969 29.7063 31.9766 29.7223 31.8482 29.7223C30.9978 29.7223 30.0512 29.2089 29.1367 28.7115C28.3665 28.2943 27.5804 27.8692 27.0669 27.8692C27.0188 27.8692 26.9707 27.8692 26.9305 27.8852C26.6257 27.9494 26.377 28.0858 26.1765 28.2943C25.9197 28.5671 25.7834 28.9121 25.7914 29.2891C25.7994 29.6581 25.9518 30.0111 26.2166 30.2678C27.6365 31.7359 27.7248 32.7146 27.805 33.573C27.8451 34.0383 27.8852 34.4314 28.1178 34.9448C28.519 35.8192 29.5699 36.2444 31.3348 36.2444C31.8803 36.2444 32.506 36.2043 33.196 36.1161C34.1185 36.0038 34.8165 35.9155 35.4743 35.9155L35.4663 35.8995Z" fill="white"/>
</g>
</g>
<defs>
<clipPath id="clip0_5308_5847">
<rect width="72" height="72" rx="36" fill="white"/>
</clipPath>
</defs>
</svg>

<svg xmlns="http://www.w3.org/2000/svg" width="72" height="72" fill="none"><g clip-path="url(#a)"><rect width="72" height="72" fill="#FC4C02" rx="36"/><mask id="b" width="72" height="72" x="0" y="0" maskUnits="userSpaceOnUse" style="mask-type:luminance"><path fill="#fff" d="M72 0H0v72h72z"/></mask><g mask="url(#b)"><path fill="#fff" d="M36.004 61.579c-14.103 0-25.575-11.472-25.575-25.575S21.9 10.429 36.004 10.429c14.087.016 25.559 11.488 25.575 25.575 0 14.103-11.472 25.575-25.575 25.575M15.659 31.527a20.4 20.4 0 0 0-.497 4.477 20.8 20.8 0 0 0 18.202 20.665 6.16 6.16 0 0 0-.641-2.896c-.642-.923-1.757-1.508-2.848-2.078-1.62-.85-3.466-1.805-3.57-4.035a32.7 32.7 0 0 0-.153-5.551c-.144-.233-1.002-.674-1.7-1.027-2.551-1.3-7.044-3.578-8.793-9.555M35.466 35.9c1.605 0 2.752.537 4.084 1.925.818.85 1.243 1.82 1.62 2.68.602 1.371.97 2.093 2.206 2.237 1.188.145 4.084.65 5.351 2.343.49.65.666 1.388.53 2.182-.257 1.508-1.428 2.631-2.792 3.939-1.26 1.211-2.672 2.56-3.57 4.452 7.292-2.55 12.515-8.824 13.702-16.453a3 3 0 0 0-.37.353c-.456.513-.986.778-1.555.778-1.38 0-2.808-1.508-4.637-4.886-2.014-3.706-.979-5.928-.072-7.894.256-.553.497-1.075.681-1.628a10.65 10.65 0 0 0-.746-5.407 20.8 20.8 0 0 0-9.025-4.766 5.46 5.46 0 0 1-2.88 2.303C34.8 19.1 34.768 21.844 34.736 24.5c-.024 2.302-.056 4.677-2.51 5.182-.13.024-.25.04-.378.04-.85 0-1.797-.513-2.711-1.01-.77-.418-1.557-.843-2.07-.843-.048 0-.096 0-.137.016q-.454.095-.753.41a1.407 1.407 0 0 0 .04 1.974c1.42 1.467 1.508 2.446 1.588 3.304.04.465.08.858.313 1.372.401.874 1.452 1.3 3.217 1.3.545 0 1.171-.04 1.861-.129.922-.112 1.62-.2 2.278-.2z"/></g></g><defs><clipPath id="a"><rect width="72" height="72" fill="#fff" rx="36"/></clipPath></defs></svg>
